X: 26437
T: Merry Sisters, The
R: reel
M: 4/4
K: Edorian
(A|:B)~E3 Bdc(.A|B)~E3 dAF(.A|B)~E3 BE(3.AB.(c|d)AF.A DEF.A|
B~E3 {c}B~E3|{c}B~E3 dAF(.A|B)~E3 {A}EB{c}BA|{e}dAF.A ~D2F.A|
Bz{g}ec d2c.A|(3B.c.B {eg}ed {Bc}BAF.A|B.e{a}ec d.ecA|B/{c}B/A Bc {e}dAF.A|
B.e{a}ec d.e cA|(3B.c.d e.f {a}g.d (3e.f.g|a.f{a}ge fa{g}ed|B/{c}B/A Bc {e}dAFD||
E.dc.A BdAd|B~E3 {c}BE F.A|(3B.c.d c.A BF (3AB.c|dAF.A D.EF.A|
(3B.c.d c.A BdAd|B~E3 {c}BE{B}AF|{A}DEF.A dA(3e.f.g|{fg}fdc.{g}e d z{d}cA:|

